dist/svg/u1F50C.svg

<?xml version="1.0" encoding="UTF-8"?><svg id="a" xmlns="http://www.w3.org/2000/svg" viewBox="0 0 40 40"><rect id="b" x=".062" y=".062" width="40" height="40" fill="none"/><g><g><path d="M26.634,14.542v-1.34h8.714c.369,0,.67,.301,.67,.67s-.301,.67-.67,.67h-8.714Z" fill="#e5e8eb"/><path d="M35.348,11.658h-10.258v4.428h10.258c1.223,0,2.214-.991,2.214-2.214s-.991-2.214-2.214-2.214h0Z" fill="#a3adb7"/></g><g><path d="M26.634,26.922v-1.341h8.714c.369,0,.67,.301,.67,.67s-.301,.67-.67,.67h-8.714Z" fill="#e5e8eb"/><path d="M35.348,24.037h-10.258v4.428h10.258c1.223,0,2.214-.991,2.214-2.214s-.991-2.214-2.214-2.214h0Z" fill="#a3adb7"/></g><path d="M27.383,32.756V7.368c0-1.146-.929-2.075-2.075-2.075h-3.541v29.539h3.541c1.146,0,2.075-.929,2.075-2.075Z" fill="#424f57"/><path d="M2.562,25.175V14.949c0-.821,.488-1.564,1.242-1.89L21.767,5.292v29.539L3.803,27.064c-.754-.326-1.242-1.069-1.242-1.89Z" fill="#424f57"/></g></svg>

<svg id="Layer_1" data-name="Layer 1" xmlns="http://www.w3.org/2000/svg" viewBox="0 0 40 40"><defs><style>.cls-1{fill:none;}.cls-2{fill:#e5e8eb;}.cls-3{fill:#a3adb7;}.cls-4{fill:#424f57;}</style></defs><rect id="SVGID" class="cls-1" x="0.062" y="0.062" width="40" height="40"/><path class="cls-2" d="M26.634,14.542V13.2h8.714a.67.67,0,1,1,0,1.34Z"/><path class="cls-3" d="M35.348,11.658H25.09v4.428H35.348a2.214,2.214,0,0,0,0-4.428Z"/><path class="cls-2" d="M26.634,26.922V25.581h8.714a.671.671,0,0,1,0,1.341Z"/><path class="cls-3" d="M35.348,24.037H25.09v4.429H35.348a2.215,2.215,0,0,0,0-4.429Z"/><path class="cls-4" d="M27.383,32.756V7.368a2.075,2.075,0,0,0-2.075-2.076H21.767V34.831h3.541A2.075,2.075,0,0,0,27.383,32.756Z"/><path class="cls-4" d="M2.562,25.175V14.949A2.06,2.06,0,0,1,3.8,13.059L21.767,5.292V34.831L3.8,27.064A2.059,2.059,0,0,1,2.562,25.175Z"/></svg>
